material/.icons/material/format-list-checkbox.svg

<svg xmlns="http://www.w3.org/2000/svg" viewBox="0 0 24 24"><path d="M21 19v-2H8v2h13m0-6v-2H8v2h13M8 7h13V5H8v2M4 5v2h2V5H4M3 5a1 1 0 011-1h2a1 1 0 011 1v2a1 1 0 01-1 1H4a1 1 0 01-1-1V5m1 6v2h2v-2H4m-1 0a1 1 0 011-1h2a1 1 0 011 1v2a1 1 0 01-1 1H4a1 1 0 01-1-1v-2m1 6v2h2v-2H4m-1 0a1 1 0 011-1h2a1 1 0 011 1v2a1 1 0 01-1 1H4a1 1 0 01-1-1v-2z"/></svg>

<?xml version="1.0" encoding="UTF-8"?><!DOCTYPE svg PUBLIC "-//W3C//DTD SVG 1.1//EN" "http://www.w3.org/Graphics/SVG/1.1/DTD/svg11.dtd"><svg xmlns="http://www.w3.org/2000/svg" xmlns:xlink="http://www.w3.org/1999/xlink" version="1.1" id="mdi-format-list-checkbox" width="24" height="24" viewBox="0 0 24 24"><path d="M21,19V17H8V19H21M21,13V11H8V13H21M8,7H21V5H8V7M4,5V7H6V5H4M3,5A1,1 0 0,1 4,4H6A1,1 0 0,1 7,5V7A1,1 0 0,1 6,8H4A1,1 0 0,1 3,7V5M4,11V13H6V11H4M3,11A1,1 0 0,1 4,10H6A1,1 0 0,1 7,11V13A1,1 0 0,1 6,14H4A1,1 0 0,1 3,13V11M4,17V19H6V17H4M3,17A1,1 0 0,1 4,16H6A1,1 0 0,1 7,17V19A1,1 0 0,1 6,20H4A1,1 0 0,1 3,19V17Z" /></svg>
